src/assets/svg/logo.svg

<svg width="106" height="40" viewBox="0 0 106 40" fill="none" xmlns="http://www.w3.org/2000/svg">
<path d="M62.335 13.3683C62.5567 13.3683 62.7375 13.4442 62.8775 13.5958C63.0292 13.7358 63.105 13.9167 63.105 14.1383C63.105 14.3483 63.0292 14.5292 62.8775 14.6808C62.7375 14.8325 62.5567 14.9083 62.335 14.9083H58.5725V25.4083C58.5725 25.63 58.4967 25.8167 58.345 25.9683C58.205 26.1083 58.0242 26.1783 57.8025 26.1783C57.5925 26.1783 57.4117 26.1083 57.26 25.9683C57.1083 25.8167 57.0325 25.63 57.0325 25.4083V14.9083H53.27C53.06 14.9083 52.8792 14.8325 52.7275 14.6808C52.5758 14.5292 52.5 14.3483 52.5 14.1383C52.5 13.9167 52.5758 13.7358 52.7275 13.5958C52.8792 13.4442 53.06 13.3683 53.27 13.3683H62.335Z" fill="#1F2041"/>
<path d="M68.9076 13.3683C69.7943 13.3683 70.6285 13.5375 71.4101 13.8758C72.2034 14.2142 72.8918 14.675 73.4751 15.2583C74.0701 15.8417 74.5368 16.53 74.8751 17.3233C75.2134 18.105 75.3826 18.9392 75.3826 19.8258C75.3826 20.8642 75.1609 21.8208 74.7176 22.6958C74.2743 23.5708 73.6735 24.3058 72.9151 24.9008C72.9151 24.9008 72.9035 24.9125 72.8801 24.9358C72.3201 25.3558 71.7076 25.6883 71.0426 25.9333C70.3776 26.1667 69.6659 26.2833 68.9076 26.2833C68.0209 26.2833 67.1868 26.1142 66.4051 25.7758C65.6234 25.4375 64.9351 24.9767 64.3401 24.3933C63.7568 23.81 63.2959 23.1275 62.9576 22.3458C62.6193 21.5642 62.4501 20.7242 62.4501 19.8258C62.4501 18.8458 62.6484 17.9417 63.0451 17.1133C63.4418 16.2733 63.9843 15.5558 64.6726 14.9608L64.7426 14.8908C64.7543 14.8908 64.7718 14.8792 64.7951 14.8558C65.3551 14.3892 65.9851 14.0275 66.6851 13.7708C67.3851 13.5025 68.1259 13.3683 68.9076 13.3683ZM68.9076 24.7433C69.3509 24.7433 69.771 24.6908 70.1676 24.5858C70.576 24.4692 70.9609 24.3117 71.3226 24.1133L65.1801 16.6408C64.8068 17.0725 64.5151 17.5625 64.3051 18.1108C64.0951 18.6475 63.9901 19.2192 63.9901 19.8258C63.9901 20.5025 64.1185 21.1383 64.3751 21.7333C64.6318 22.3283 64.9818 22.8533 65.4251 23.3083C65.8801 23.7517 66.4051 24.1017 67.0001 24.3583C67.5951 24.615 68.2309 24.7433 68.9076 24.7433ZM72.5301 23.1508C72.9384 22.7075 73.2535 22.2058 73.4751 21.6458C73.7085 21.0742 73.8251 20.4675 73.8251 19.8258C73.8251 19.1492 73.6968 18.5133 73.4401 17.9183C73.1834 17.3233 72.8276 16.8042 72.3726 16.3608C71.9293 15.9058 71.4101 15.55 70.8151 15.2933C70.2201 15.0367 69.5843 14.9083 68.9076 14.9083C68.4409 14.9083 67.9918 14.9725 67.5601 15.1008C67.1284 15.2175 66.7259 15.3925 66.3526 15.6258L72.5301 23.1508Z" fill="#1F2041"/>
<path d="M82.351 20.6308C82.1177 20.6308 81.9194 20.5375 81.756 20.3508L77.2585 14.5758C77.1302 14.4125 77.0777 14.2317 77.101 14.0333C77.1244 13.8233 77.2177 13.6542 77.381 13.5258C77.5444 13.3975 77.7252 13.3508 77.9235 13.3858C78.1335 13.4092 78.3027 13.5025 78.431 13.6658L82.351 18.6708L86.1835 13.7533C86.3119 13.59 86.4752 13.4967 86.6735 13.4733C86.8835 13.45 87.0702 13.5025 87.2335 13.6308C87.3969 13.7592 87.4902 13.9283 87.5135 14.1383C87.5369 14.3367 87.4844 14.5175 87.356 14.6808L82.946 20.3508C82.7944 20.5375 82.596 20.6308 82.351 20.6308ZM87.2685 26.2658C87.2219 26.2658 87.146 26.26 87.041 26.2483C86.9477 26.2367 86.8369 26.2075 86.7085 26.1608C86.5802 26.1025 86.4402 26.0267 86.2885 25.9333C86.1485 25.8283 86.0085 25.6883 85.8685 25.5133L82.351 20.9808L78.5185 25.9158C78.3902 26.0792 78.221 26.1725 78.011 26.1958C77.8127 26.2192 77.6319 26.1667 77.4685 26.0383C77.3052 25.91 77.2119 25.7467 77.1885 25.5483C77.1652 25.3383 77.2177 25.1517 77.346 24.9883L81.756 19.3183C81.896 19.1317 82.0885 19.0383 82.3335 19.0383C82.5902 19.0383 82.7944 19.1317 82.946 19.3183L87.041 24.5683C87.0994 24.65 87.1519 24.7025 87.1985 24.7258C87.2452 24.7492 87.2802 24.7667 87.3035 24.7783C87.5019 24.7783 87.6652 24.8483 87.7935 24.9883C87.9335 25.1167 88.0094 25.28 88.021 25.4783C88.0444 25.6883 87.986 25.8692 87.846 26.0208C87.706 26.1725 87.531 26.2542 87.321 26.2658H87.2685Z" fill="#1F2041"/>
<path d="M91.7343 26.2658C91.5126 26.2658 91.326 26.19 91.1743 26.0383C91.0226 25.8867 90.9468 25.7 90.9468 25.4783V14.1033C90.9468 13.8933 91.0226 13.7125 91.1743 13.5608C91.326 13.4092 91.5126 13.3333 91.7343 13.3333C91.9443 13.3333 92.1251 13.4092 92.2768 13.5608C92.4285 13.7125 92.5043 13.8933 92.5043 14.1033V25.4783C92.5043 25.7 92.4285 25.8867 92.2768 26.0383C92.1251 26.19 91.9443 26.2658 91.7343 26.2658Z" fill="#1F2041"/>
<path d="M104.938 26.2308C104.681 26.2308 104.483 26.1317 104.343 25.9333L97.0452 16.3433V25.4783C97.0452 25.6883 96.9693 25.8692 96.8177 26.0208C96.6777 26.1608 96.5027 26.2308 96.2927 26.2308C96.0943 26.2308 95.9193 26.1608 95.7677 26.0208C95.616 25.8692 95.5402 25.6883 95.5402 25.4783V14.1208C95.5402 13.9575 95.5868 13.8117 95.6802 13.6833C95.7735 13.555 95.9018 13.4675 96.0652 13.4208C96.2168 13.3625 96.3685 13.3567 96.5202 13.4033C96.6718 13.45 96.8002 13.5375 96.9052 13.6658L104.185 23.2733V14.1208C104.185 13.9225 104.255 13.7475 104.395 13.5958C104.547 13.4442 104.728 13.3683 104.938 13.3683C105.148 13.3683 105.323 13.4442 105.463 13.5958C105.614 13.7475 105.69 13.9225 105.69 14.1208V25.4783C105.69 25.6417 105.643 25.7875 105.55 25.9158C105.457 26.0442 105.334 26.1375 105.183 26.1958C105.066 26.2192 104.984 26.2308 104.938 26.2308Z" fill="#1F2041"/>
<path d="M19.9999 27.0589C19.3528 27.0589 18.8234 26.5295 18.8234 25.8824C18.8234 21.353 15.1175 17.6471 10.5881 17.6471C9.94103 17.6471 9.41162 17.1177 9.41162 16.4707C9.41162 15.8236 9.94103 15.2942 10.5881 15.2942C16.441 15.2942 21.1763 20.0295 21.1763 25.8824C21.1763 26.5295 20.6469 27.0589 19.9999 27.0589Z" fill="url(#paint0_linear)"/>
<path d="M30.5882 16.4707C30.5882 17.1177 30.0588 17.6471 29.4117 17.6471C26.6176 17.6471 24.1176 19.0589 22.647 21.206C22.3235 20.3824 21.9411 19.6177 21.4705 18.9118C23.4117 16.6765 26.2646 15.2942 29.4117 15.2942C30.0588 15.2942 30.5882 15.8236 30.5882 16.4707Z" fill="url(#paint1_linear)"/>
<path d="M20 40C8.97059 40 0 31.0294 0 20C0 8.97059 8.97059 0 20 0C31.0294 0 40 8.97059 40 20C40 31.0294 31.0294 40 20 40ZM20 2.35294C10.2647 2.35294 2.35294 10.2647 2.35294 20C2.35294 29.7353 10.2647 37.6471 20 37.6471C29.7353 37.6471 37.6471 29.7353 37.6471 20C37.6471 10.2647 29.7353 2.35294 20 2.35294Z" fill="url(#paint2_linear)"/>
<defs>
<linearGradient id="paint0_linear" x1="15.294" y1="15.2942" x2="15.294" y2="27.0589" gradientUnits="userSpaceOnUse">
<stop stop-color="#BC9CFF"/>
<stop offset="1" stop-color="#8BA4F9"/>
</linearGradient>
<linearGradient id="paint1_linear" x1="26.0293" y1="15.2942" x2="26.0293" y2="21.206" gradientUnits="userSpaceOnUse">
<stop stop-color="#6FCF97"/>
<stop offset="1" stop-color="#66D2EA"/>
</linearGradient>
<linearGradient id="paint2_linear" x1="20" y1="0" x2="20" y2="40" gradientUnits="userSpaceOnUse">
<stop stop-color="#BC9CFF"/>
<stop offset="1" stop-color="#8BA4F9"/>
</linearGradient>
</defs>
</svg>

<svg width="106" height="40" fill="none" xmlns="http://www.w3.org/2000/svg"><path d="M62.335 13.368c.222 0 .402.076.542.228.152.14.228.32.228.542a.74.74 0 0 1-.227.543.705.705 0 0 1-.543.227h-3.763v10.5a.76.76 0 0 1-.227.56c-.14.14-.32.21-.542.21-.21 0-.391-.07-.543-.21a.76.76 0 0 1-.227-.56v-10.5H53.27a.74.74 0 0 1-.543-.227.74.74 0 0 1-.227-.543c0-.221.076-.402.227-.542a.74.74 0 0 1 .543-.228h9.065ZM68.908 13.368c.886 0 1.72.17 2.502.508.793.338 1.482.799 2.065 1.382a6.344 6.344 0 0 1 1.4 2.065c.338.782.508 1.616.508 2.503a6.258 6.258 0 0 1-.665 2.87 6.498 6.498 0 0 1-1.803 2.205l-.035.035c-.56.42-1.172.752-1.837.997a6.401 6.401 0 0 1-2.135.35 6.23 6.23 0 0 1-2.503-.507 6.751 6.751 0 0 1-2.065-1.383 6.536 6.536 0 0 1-1.382-2.047 6.275 6.275 0 0 1-.508-2.52c0-.98.198-1.884.595-2.713.397-.84.94-1.557 1.628-2.152l.07-.07c.011 0 .029-.012.052-.035a6.336 6.336 0 0 1 1.89-1.085c.7-.269 1.44-.403 2.223-.403Zm0 11.375c.443 0 .863-.052 1.26-.157a5.575 5.575 0 0 0 1.155-.473l-6.143-7.472a4.916 4.916 0 0 0-.875 1.47 4.664 4.664 0 0 0-.315 1.715c0 .677.128 1.312.385 1.907s.607 1.12 1.05 1.575c.455.444.98.794 1.575 1.05.595.257 1.23.385 1.908.385Zm3.622-1.592c.408-.444.724-.945.945-1.505.234-.572.35-1.178.35-1.82a4.814 4.814 0 0 0-1.453-3.465 4.813 4.813 0 0 0-3.464-1.453c-.467 0-.916.065-1.348.193a4.462 4.462 0 0 0-1.207.525l6.177 7.525ZM82.351 20.63a.762.762 0 0 1-.595-.28l-4.498-5.774a.714.714 0 0 1-.157-.543.722.722 0 0 1 .28-.507.658.658 0 0 1 .543-.14c.21.023.379.117.507.28l3.92 5.005 3.832-4.918a.71.71 0 0 1 .49-.28c.21-.023.397.03.56.158a.721.721 0 0 1 .28.507.713.713 0 0 1-.157.543l-4.41 5.67a.73.73 0 0 1-.595.28Zm4.918 5.636a1.566 1.566 0 0 1-.56-.105 3.847 3.847 0 0 1-.42-.228 2.376 2.376 0 0 1-.42-.42l-3.518-4.532-3.832 4.935a.721.721 0 0 1-.508.28.713.713 0 0 1-.542-.158.709.709 0 0 1-.28-.49.741.741 0 0 1 .157-.56l4.41-5.67a.682.682 0 0 1 .578-.28c.256 0 .46.094.612.28l4.095 5.25c.058.082.11.134.157.158l.106.052c.198 0 .361.07.49.21.14.129.215.292.227.49a.657.657 0 0 1-.175.543.744.744 0 0 1-.525.245h-.052ZM91.734 26.266a.761.761 0 0 1-.56-.228.76.76 0 0 1-.227-.56V14.103c0-.21.076-.39.227-.542a.761.761 0 0 1 .56-.228c.21 0 .391.076.543.228a.74.74 0 0 1 .227.542v11.375a.76.76 0 0 1-.227.56.74.74 0 0 1-.543.228ZM104.938 26.23a.685.685 0 0 1-.595-.297l-7.298-9.59v9.135a.74.74 0 0 1-.227.543.712.712 0 0 1-.525.21.75.75 0 0 1-.753-.753V14.121c0-.164.047-.31.14-.438a.697.697 0 0 1 .385-.262.679.679 0 0 1 .455-.018.79.79 0 0 1 .385.263l7.28 9.607v-9.152a.743.743 0 0 1 .753-.752c.21 0 .385.075.525.227a.723.723 0 0 1 .227.525v11.357c0 .164-.047.31-.14.438a.798.798 0 0 1-.367.28 1.481 1.481 0 0 1-.245.035Z" fill="#1F2041"/><path d="M20 27.059a1.18 1.18 0 0 1-1.177-1.177c0-4.529-3.706-8.235-8.235-8.235a1.18 1.18 0 0 1-1.176-1.176c0-.647.529-1.177 1.176-1.177a10.582 10.582 0 0 1 10.588 10.588A1.18 1.18 0 0 1 20 27.06Z" fill="url(#a)"/><path d="M30.588 16.47a1.18 1.18 0 0 1-1.176 1.177 8.21 8.21 0 0 0-6.765 3.559 12.037 12.037 0 0 0-1.176-2.294 10.49 10.49 0 0 1 7.94-3.618c.648 0 1.177.53 1.177 1.177Z" fill="url(#b)"/><path d="M20 40C8.97 40 0 31.03 0 20S8.97 0 20 0s20 8.97 20 20-8.97 20-20 20Zm0-37.647C10.265 2.353 2.353 10.265 2.353 20S10.265 37.647 20 37.647 37.647 29.735 37.647 20 29.735 2.353 20 2.353Z" fill="url(#c)"/><defs><linearGradient id="a" x1="15.294" y1="15.294" x2="15.294" y2="27.059" gradientUnits="userSpaceOnUse"><stop stop-color="#BC9CFF"/><stop offset="1" stop-color="#8BA4F9"/></linearGradient><linearGradient id="b" x1="26.029" y1="15.294" x2="26.029" y2="21.206" gradientUnits="userSpaceOnUse"><stop stop-color="#6FCF97"/><stop offset="1" stop-color="#66D2EA"/></linearGradient><linearGradient id="c" x1="20" y1="0" x2="20" y2="40" gradientUnits="userSpaceOnUse"><stop stop-color="#BC9CFF"/><stop offset="1" stop-color="#8BA4F9"/></linearGradient></defs></svg>
